X:35
T:Flowers of Spring, The
T:Tom Billy's
R:jig
D:De Dannan
Z:Also played in Ador, see #317
Z:id:hn-jig-35
M:6/8
K:Edor
~E3 EFA|BAF D2F|AFE DED|DFA BAd|~E3 EFA|BAF D2F|AFF dFF|1 EFE B,CD:|2 EFE E2A||
|:Bee ede|~f3 edB|BAB DFA|~B3 dBA|Bee ede|~f3 edB|B/2c/2dB AFD|1 EFE EFA:|2 EFE E2D||
